X:10
T: The Story Teller
C: Larry Cusick
M: C|
K: G
G2BA GEDB, | DEGA B2Bc | dB~B2 eB~B2 | cBAG A2BA |
G2BA GEDB, | DEGA B2Bc | dB~B2 eB~B2 | AGAB G4 :|
GFGA BAGB | AGAB cA~A2 | c2ec B2dB | AGAB AFED |
GFGA BAGB | AGAB cA~A2 | c2 ec B2dB | AGAB G4 :|
B2Bc dB~B2 | gfed edAB | c2 cd ec~c2 | afge fdec |
B2Bc dB~B2 | gfed edAB | c2cB cded | AGAB G4 :|
